icon-svg/air-filter.svg

<svg xmlns="http://www.w3.org/2000/svg" fill="#44739e" viewBox="0 0 24 24"><path d="M8.503 14.786v.867l6.316-.474-.004-.651zm0-5.864v.874l6.29.74-.003-.549zm6.28-.193-6.28-1.251v.875l6.284 1.065zm-.02-3.567-6.26-1.886v.829l6.263 1.645Zm-6.26-.478v.907l6.27 1.342-.004-.603zm0 16.024v1.049l6.343-1.756-.004-.628-6.317 1.434zm6.326-3.769-6.326.811v.91l6.33-.996zm-.073-12.958L8.503 2v.711l.005-.018 6.251 1.883ZM8.503 17.185l6.322-.81-.003-.635-6.319.474Zm6.273-9.678L8.503 6.164v.743l6.276 1.25zm.02 3.593-6.293-.74v.726l6.296.494zm-6.293 8.127v1.01l6.336-1.438-.003-.569zm0-7.58v1.015h6.284v.561H8.503v1.002l6.309-.258-.01-1.826zM7.027 2.008h.757V22h-.757ZM2.515 19.187v.363a10.55 10.55 0 0 0 3.951.651v-.363a10.55 10.55 0 0 1-3.951-.651m17.812.313v.531l1.158-.658-1.158-.727v.49A11.44 11.44 0 0 0 15.4 18.6v.363a11.43 11.43 0 0 1 4.927.537m0-4.719v.531l1.158-.658-1.158-.727v.491a11.45 11.45 0 0 0-4.955-.532v.363a11.47 11.47 0 0 1 4.955.532m-17.812-.309v.364a10.59 10.59 0 0 0 3.951.651v-.364a10.55 10.55 0 0 1-3.951-.651m18.97-4.728-1.158-.726v.49a11.5 11.5 0 0 0-4.983-.529v.363a11.49 11.49 0 0 1 4.981.53v.528Zm-18.97-.181v.363a10.55 10.55 0 0 0 3.951.651v-.363a10.55 10.55 0 0 1-3.951-.651m0-4.223v.36a10.55 10.55 0 0 0 3.951.651v-.359a10.57 10.57 0 0 1-3.951-.652m17.812.309v.532l1.158-.659-1.158-.722v.491a11.49 11.49 0 0 0-5.006-.527v.363a11.5 11.5 0 0 1 5.006.522"/></svg>

<?xml version="1.0" encoding="UTF-8"?>
<svg width="24px" fill="#44739e" height="24px" viewBox="0 0 24 24" version="1.1" xmlns="http://www.w3.org/2000/svg" xmlns:xlink="http://www.w3.org/1999/xlink">
            <path d="m 8.503,14.786 v 0.867 l 6.316,-0.474 -0.004,-0.651 z m 0,-5.864 v 0.874 l 6.29,0.74 -0.003,-0.549 z m 6.28,-0.193 -6.28,-1.251 v 0.875 l 6.284,1.065 z M 14.763,5.162 8.503,3.276 V 4.105 L 14.766,5.75 Z M 8.503,4.684 v 0.907 l 6.27,1.342 -0.004,-0.603 z m 0,16.024 v 1.049 l 6.343,-1.756 -0.004,-0.628 -6.317,1.434 z m 6.326,-3.769 -6.326,0.811 v 0.91 l 6.33,-0.996 z M 14.756,3.981 8.503,2 V 2.711 L 8.508,2.693 14.759,4.576 Z M 8.503,17.185 14.825,16.375 14.822,15.74 8.503,16.214 Z M 14.776,7.507 8.503,6.164 v 0.743 l 6.276,1.25 z m 0.02,3.593 -6.293,-0.74 v 0.726 l 6.296,0.494 z m -6.293,8.127 v 1.01 l 6.336,-1.438 -0.003,-0.569 z m 0,-7.58 v 1.015 h 6.284 v 0.561 H 8.503 v 1.002 l 6.309,-0.258 -0.01,-1.826 z M 7.027,2.0079999 H 7.784 V 22 H 7.027 Z M 2.515,19.187 v 0.363 a 10.55,10.55 0 0 0 3.951,0.651 V 19.838 A 10.55,10.55 0 0 1 2.515,19.187 Z M 20.327,19.5 v 0.531 l 1.158,-0.658 -1.158,-0.727 v 0.49 A 11.439,11.439 0 0 0 15.4,18.6 v 0.363 a 11.43,11.43 0 0 1 4.927,0.537 z m 0,-4.719 v 0.531 l 1.158,-0.658 -1.158,-0.727 v 0.491 a 11.448,11.448 0 0 0 -4.955,-0.532 v 0.363 a 11.47,11.47 0 0 1 4.955,0.532 z M 2.515,14.472 v 0.364 a 10.591,10.591 0 0 0 3.951,0.651 V 15.123 A 10.55,10.55 0 0 1 2.515,14.472 Z M 21.485,9.744 20.327,9.018 v 0.49 A 11.5,11.5 0 0 0 15.344,8.979 v 0.363 a 11.486,11.486 0 0 1 4.981,0.53 V 10.4 Z M 2.515,9.563 v 0.363 a 10.55,10.55 0 0 0 3.951,0.651 V 10.214 A 10.55,10.55 0 0 1 2.515,9.563 Z m 0,-4.223 V 5.7 A 10.55,10.55 0 0 0 6.466,6.351 V 5.992 A 10.572,10.572 0 0 1 2.515,5.34 Z M 20.327,5.649 V 6.181 L 21.485,5.522 20.327,4.8 V 5.291 A 11.492,11.492 0 0 0 15.321,4.764 v 0.363 a 11.5,11.5 0 0 1 5.006,0.522 zs"/>

</svg>
